src/images/svg/symbols/index10-new.svg

<svg width="33" height="32" viewBox="0 0 33 32" fill="none" xmlns="http://www.w3.org/2000/svg">
<path d="M22.834 13.0001H24.334V22H22.834V32H21.834V22H20.334V13.0001H21.834V11.0001H22.834V13.0001Z" fill="#85ACB0"/>
<path d="M30.334 11V18H28.834V22H27.834V18H26.334V11H30.334Z" fill="#85ACB0"/>
<path d="M16.834 20V16H15.834V20H14.334V28H15.834V30H16.834V28H18.334V20H16.834Z" fill="#85ACB0"/>
<path d="M10.834 15H12.334V21H10.834V28H9.83398V21H8.33398V15H9.83398V13H10.834V15Z" fill="#85ACB0"/>
<path d="M4.83398 19H6.33398V23H4.83398V25H3.83398V23H2.33398V19H3.83398V17H4.83398V19Z" fill="#85ACB0"/>
<path d="M0.333984 2C0.333984 0.89543 1.22941 0 2.33398 0H12.334C13.4386 0 14.334 0.895431 14.334 2V8C14.334 9.10457 13.4386 10 12.334 10H2.33398C1.22941 10 0.333984 9.10457 0.333984 8V2Z" fill="#0E0E0E"/>
<path d="M3.28841 8.00031V7.03231H4.79241V3.28831H4.72041L3.58441 4.77631L2.81641 4.17631L4.15241 2.41631H5.99241V7.03231H7.17641V8.00031H3.28841Z" fill="white"/>
<path d="M9.73328 8.09631C9.00261 8.09631 8.46128 7.84298 8.10928 7.33631C7.75728 6.82965 7.58128 6.12031 7.58128 5.20831C7.58128 4.29631 7.75728 3.58698 8.10928 3.08031C8.46128 2.57365 9.00261 2.32031 9.73328 2.32031C10.4639 2.32031 11.0053 2.57365 11.3573 3.08031C11.7093 3.58698 11.8853 4.29631 11.8853 5.20831C11.8853 6.12031 11.7093 6.82965 11.3573 7.33631C11.0053 7.84298 10.4639 8.09631 9.73328 8.09631ZM9.73328 7.08031C10.0533 7.08031 10.2746 6.96298 10.3973 6.72831C10.5199 6.49365 10.5813 6.16298 10.5813 5.73631V4.68031C10.5813 4.25365 10.5199 3.92298 10.3973 3.68831C10.2746 3.45365 10.0533 3.33631 9.73328 3.33631C9.41328 3.33631 9.19195 3.45365 9.06928 3.68831C8.94661 3.92298 8.88528 4.25365 8.88528 4.68031V5.73631C8.88528 6.16298 8.94661 6.49365 9.06928 6.72831C9.19195 6.96298 9.41328 7.08031 9.73328 7.08031Z" fill="white"/>
</svg>

<svg width="33" height="32" fill="none" xmlns="http://www.w3.org/2000/svg"><path d="M22.834 13h1.5v9h-1.5v10h-1V22h-1.5v-9h1.5v-2h1v2ZM30.334 11v7h-1.5v4h-1v-4h-1.5v-7h4ZM16.834 20v-4h-1v4h-1.5v8h1.5v2h1v-2h1.5v-8h-1.5ZM10.834 15h1.5v6h-1.5v7h-1v-7h-1.5v-6h1.5v-2h1v2ZM4.834 19h1.5v4h-1.5v2h-1v-2h-1.5v-4h1.5v-2h1v2Z" fill="#85ACB0"/><path d="M.334 2a2 2 0 0 1 2-2h10a2 2 0 0 1 2 2v6a2 2 0 0 1-2 2h-10a2 2 0 0 1-2-2V2Z" fill="#0E0E0E"/><path d="M3.288 8v-.968h1.504V3.288H4.72L3.584 4.776l-.768-.6 1.336-1.76h1.84v4.616h1.184V8H3.288ZM9.733 8.096c-.73 0-1.272-.253-1.624-.76-.352-.506-.528-1.216-.528-2.128 0-.912.176-1.621.528-2.128.352-.506.894-.76 1.624-.76.73 0 1.272.254 1.624.76.352.507.528 1.216.528 2.128 0 .912-.176 1.622-.528 2.128-.352.507-.893.76-1.624.76Zm0-1.016c.32 0 .542-.117.664-.352.123-.234.184-.565.184-.992V4.68c0-.426-.061-.757-.184-.992-.122-.234-.344-.352-.664-.352-.32 0-.541.118-.664.352-.122.235-.184.566-.184.992v1.056c0 .427.062.758.184.992.123.235.344.352.664.352Z" fill="#fff"/></svg>
